X:1
T:Psalm 121
T:V 4
L:1/4
M:14/4
I:linebreak $
K:Bb
V:1 treble nm="Pipe Organ" snm="Org."
V:1
 F2 G2 F B2 A G G F3 z |$[M:9/4] B2 B A B2 c2 d |$ d c B B A B3 z |$ %3
w: Die HEER sal jou bly ga- de- slaan;|in on- heil en ge- vaar|sal Hy jou siel be- waar.|
[M:14/4] F2 G A B A G2 ^F2 G3 z |$[M:9/4] B2 A G F E D2 C |$[M:13/4] F F G A2 B2 G2 F4 |] %6
w: Wan- neer jy uit of in mag gaan-|Hy, Is- ra- els ont- fer- mer,|is e- wig jou be- sker- mer.|

